X: 42344
T: Weeping Cloud, The
R: reel
M: 4/4
K: Eminor
EF|:GBEG BAGF|G/A/G/F/ GA BdAG|(3FED AD BDAd|BGGF GFEF|
GBEG BAGF|G/A/G/F/ GA BDAG|BGGA GFEF|(3GFE FD EEBD:|
eBBf geeg|fdd^c ddBA|GBEG BAGF|GEEF EEBd|
eBBf geeg|fdd^c ddBA|BGGA GFEF|(3GFE FD EEBD:|

